IMB-X-Files/The-Ambassadors-Assets/660d407d0390e0e7aec2c828_Logo.svg

<svg fill="none" height="59" viewBox="0 0 183 59" width="183" xmlns="http://www.w3.org/2000/svg"><path clip-rule="evenodd" d="m17.5777 6.12879c-3.3378 1.41523-7.015 5.37791-8.20304 10.30291-1.47089 6.2837 4.63894 8.9443 5.14814 8.0951.5657-1.0189-1.0749-1.3586-1.4709-4.6419-.396-4.1891 1.584-8.9443 4.0166-10.98225.4526-.39627.4526.16983.4526 1.13215l-.1131 21.0021c0 4.4722-.1697 5.8874-.5092 7.3027-.3394 1.4152-.8486 2.3775-.4526 2.7738.4526.3963 2.4327-.5661 3.5641-2.1511 1.3012-1.9814 1.9801-4.3024 1.9235-6.6233.1131-3.0003.1131-7.7555.1131-10.4162 0-2.4908.0566-9.7368-.0565-14.09573-.0566-1.1888-2.9984-2.32099-4.4127-1.69828zm119.0853 21.00211c-.056 1.8681-.452 3.7362-1.301 5.4345-1.245 2.4908-3.79 3.2833-4.922-.3397-.566-1.9247-.622-5.208-.17-7.9253.453-2.7738 1.641-4.8684 3.678-4.6986 2.036.2265 2.941 2.7739 2.715 7.5291zm-33.547 14.492c-.057 3.8494-.623 7.246-1.924 8.265-1.8669 1.4152-4.3561.3396-3.8469-2.4908.4526-2.4909 2.6023-5.0383 5.8269-8.2084zm-.51-14.5486c-.056 1.8681-.509 3.7362-1.301 5.4911-1.244 2.4908-3.8467 3.2833-4.9216-.3397-.7355-2.4342-.5658-5.6043-.1698-7.6422.4526-2.6041 1.6407-4.9817 3.6773-4.9817 1.9801.0566 2.9981 2.2078 2.7151 7.4725zm-19.4606 0c-.0566 1.9247-.4526 3.7928-1.2446 5.4911-1.3012 2.4908-3.7904 3.2267-4.9218-.3397-.7921-2.5474-.5092-6.1138-.1698-7.9819.5092-2.8305 1.7538-4.8118 3.6773-4.642 1.98.2265 2.9417 2.7739 2.6589 7.4725zm89.1016 2.604c-.452 0-.735.5095-.905 1.3586-.622 2.9437-1.301 3.623-2.15 3.623-.961 0-1.81-1.4718-2.036-4.3589-.17-2.321-.17-6.5101.113-10.6992.056-.8491-.226-1.6983-2.489-2.5474-.962-.3396-2.433-.9057-3.168.8491-1.415 3.34-2.433 6.7932-2.999 10.3596 0 .1132-.113.1132-.169-.1132-.114-1.2455-.396-3.5664-.396-8.3782 0-.9624-.227-1.7549-1.245-2.3776-.679-.4529-2.716-1.1888-3.508-.2831-.622.7359-1.357 2.7173-2.149 5.0383l-1.075 3.1701v-7.0762c0-.7359-.509-.9624-.679-1.019-.849-.283-1.697-.4528-2.602-.5094-.679 0-.849.3962-.849.9623 0 .0566-.113 6.7365-.113 11.4351v.6227c-.396 2.1512-1.641 5.0383-3.055 5.0383-1.358 0-2.037-1.2454-2.037-6.7932 0-3.2267.113-4.6419.17-7.0195.057-1.3587.113-2.3776.113-2.6041 0-.7359-1.244-1.0756-1.867-1.2454-.565-.1132-1.075-.1698-1.471-.1698-.565.0566-.961.3963-.961.9057v.7926c-.623-.9624-1.584-1.7549-2.659-2.1512-2.093-.6227-4.243-.0566-5.884 2.2078-1.414 2.0379-2.263 4.4155-2.432 6.8497-.227 2.1512-.17 4.3589.226 6.2271-.453 2.0945-1.414 2.9436-2.376 2.9436-1.415 0-2.489-2.3775-2.376-6.3968.113-2.6607.622-4.5288 1.188-7.246.226-1.1888.056-1.7549-.453-2.321-.452-.5095-1.471-.7925-2.885-.4529-1.018.2265-2.489.5095-3.79.6793 0 0 .056-.283.169-.8491.34-2.9437-2.885-2.7173-3.903-1.7549-.622.5661-1.018 1.2454-1.188 2.4342-.226 1.8681 1.301 2.7739 1.301 2.7739-1.018 3.7928-2.659 7.3026-4.922 10.4727v-1.019c0-4.8684.057-8.7178.057-10.0764.056-1.3587.113-2.3776.113-2.6041 0-.5095-.34-.7359-.962-.9623-.566-.2265-1.244-.3963-1.923-.4529-.849-.0566-1.415.3963-1.415.9623v.736c-.622-1.019-1.584-1.7549-2.6586-2.1512-2.0931-.6227-4.2429-.0566-5.8835 2.2078-1.3577 2.0379-2.2063 4.4155-2.4326 6.8497-.2263 2.2644-.1698 4.1891.1131 5.8874-.3394 1.6417-1.3012 3.34-2.376 3.34-1.3578 0-2.1498-1.1888-2.1498-6.7932 0-3.2267.1131-4.6419.1697-7.0195.0566-1.3587.1132-2.3776.1132-2.6041 0-.7359-1.2446-1.0756-1.8669-1.2454s-1.1315-.1698-1.5275-.1698c-.5091.0566-.9052.5095-.9052.8491v.7926c-.6223-1.019-1.584-1.7549-2.6589-2.1512-2.0932-.6227-4.2429-.0566-5.8835 2.2078-1.0749 1.4718-1.9801 3.1701-2.4326 6.7931-.1132.9624-.1698 1.9813-.1698 2.9437-.4526 2.604-2.3194 5.6609-3.9035 5.6609-.9051 0-1.8103-1.7549-1.8103-5.4911 0-4.9816.3394-12.1144.3394-12.7937l2.3761-.0566c.9617 0 1.8669 0 3.1681-.0566.6788-.0566 1.3011-2.3776.6222-2.6607-.2828-.1132-2.4891-.2264-3.3377-.283-.7355 0-2.7155-.1698-2.7155-.1698s.1697-4.75524.2263-5.20811c.0565-.45288-.5092-.62271-.8486-.79254-.7355-.28304-1.4709-.50948-2.2064-.6227-1.0748-.22644-1.584 0-1.6971.90575-.1698 1.41524-.2263 5.5477-.2263 5.5477-.792 0-3.5641-.1698-4.3561-.1698-.7355 0-1.584 3.2267-.5092 3.2833l4.639.1133-.0566 9.6236v.6793c-.7354 3.9626-3.3943 6.1138-3.3943 6.1138.5657-2.604-.6223-4.5854-2.7155-6.227-.792-.6227-2.3195-1.7549-4.0733-3.0569 0 0 1.0183-.9624 1.8669-2.9437.6223-1.4153.6789-3.0003-.9051-3.34-2.5458-.6227-4.639 1.2454-5.2613 3.2834-.5091 1.302-.2263 2.8304.7355 3.8494l.2263.283c-.5658 1.0756-1.3578 2.6041-2.0367 3.7363-1.8669 3.1701-3.2246 5.7175-4.2995 5.7175-.8486 0-.8486-2.5474-.8486-4.9816 0-2.0946.1698-5.2081.2829-8.4348.0566-1.0756-.5092-1.6983-1.4143-2.2078-.7355-.5095-1.5275-.8491-2.3761-1.019-1.0183 0-3.9035.1699-6.6755 8.0952-.3395 1.019-1.0183 2.8305-1.0183 2.8305l.0565-9.5104c0-.2265-.1131-.4529-.396-.5661-.8486-.4529-1.8103-.7359-2.772-.7925-.5092 0-.7921.2264-.7921.7359l-.1131 14.9449c0 1.1322.0566 2.4342.1697 3.0569.1132.5661.2829 1.0189.5092 1.302.2263.283.4525.5095.9051.5661.396.1132 2.6024.3396 2.7155-.4529.1697-1.019.1697-2.0945 1.3012-6.1138 1.7537-6.2271 4.0732-9.3406 5.2047-10.4161.1697-.2265.396-.2265.396.1132l-.3395 7.6989c-.2828 7.8121 1.1315 9.2273 3.1681 9.2273 1.5275 0 3.7338-1.5285 6.1098-5.4345l3.9036-6.5101 2.3194 2.0945c1.8669 1.7549 2.4892 3.3966 2.0367 4.9817-.2829 1.1888-1.4709 2.4908-3.5641 1.2454-.6223-.3397-.8486-.6227-1.4709-1.019-.3394-.2264-.8486-.283-1.1315-.0566-.792.5661-1.2446 1.3586-1.4709 2.2644-.2262.9057.6789 1.3586 1.5841 1.7549.792.3396 2.5458.6793 3.6206.7359 4.2996.1698 7.6939-2.0379 10.07-7.7555.4525 4.925 2.2629 7.6989 5.3744 7.6989 2.0931 0 4.2429-2.7173 5.1481-5.3779.2828 1.0756.6788 2.0379 1.188 2.8305 2.4326 3.8494 7.1281 3.0003 9.5042-.2831.7354-1.0189.8486-1.3586.8486-1.3586.1697 2.2644 1.98 4.0759 4.2429 4.1891 1.5841 0 3.2247-.7359 4.4127-3.34.1131.2831.2829.5661.4526.7926 2.4326 3.8494 7.1284 3.0003 9.5044-.2831l.283-.3962.056 2.0379-2.15 1.9813c-3.6768 3.34-6.4488 5.8874-6.6185 8.8311-.2829 3.7928 2.772 5.1515 5.0915 5.3779 2.376.1132 4.582-1.0756 5.884-3.0569 1.131-1.6417 1.866-5.2647 1.81-8.8311l-.113-5.1514c3.451-4.0193 6.166-8.6613 7.863-13.6995 0 0 1.358 0 2.772-.0566.453-.0566.623.0566.51.3962-.114.3963-1.811 7.0196-.227 11.4351 1.075 3.0003 3.508 3.9627 4.922 3.9627 1.641 0 3.281-1.2454 4.13-3.1701l.339.6227c2.433 3.8494 7.128 3.0003 9.505-.2831.509-.7359.848-1.3586.848-1.3586.509 3.1701 2.998 4.1891 4.413 4.1891 1.471 0 2.885-.6227 4.016-3.2834.057 1.1888.114 2.1512.227 2.4909.056.1698.509.4528.792.5094 1.357.5095 2.715.2831 3.224.1699.34-.0566.623-.3397.679-1.0756.113-1.9247.057-5.1515.623-7.5857.961-4.0758 1.866-5.6043 2.319-6.3968.226-.4529.509-.5095.509-.0566 0 .9057.057 3.6796.453 7.3026.283 2.7172.679 4.3023.961 4.8118.849 1.4718 1.867 1.5284 2.659 1.5284.51 0 1.641-.1698 1.528-1.0756-.057-.4528.056-3.2267 1.018-7.1894.622-2.604 1.641-4.925 2.037-5.8307.17-.2831.226-.0566.226 0-.113 1.7549-.283 7.6423.453 10.8124.961 4.3023 3.847 4.8118 4.865 4.8118 2.15 0 3.847-1.6417 4.469-5.8874.17-.9624-.056-1.7549-.679-1.7549z" fill="#fff" fill-rule="evenodd"/></svg>

<svg width="183" height="59" viewBox="0 0 183 59" fill="none" xmlns="http://www.w3.org/2000/svg">
    <path fill-rule="evenodd" clip-rule="evenodd"
        d="M17.5777 6.12879C14.2399 7.54402 10.5627 11.5067 9.37466 16.4317C7.90377 22.7154 14.0136 25.376 14.5228 24.5268C15.0885 23.5079 13.4479 23.1682 13.0519 19.8849C12.6559 15.6958 14.6359 10.9406 17.0685 8.90265C17.5211 8.50638 17.5211 9.07248 17.5211 10.0348L17.408 31.0369C17.408 35.5091 17.2383 36.9243 16.8988 38.3396C16.5594 39.7548 16.0502 40.7171 16.4462 41.1134C16.8988 41.5097 18.8789 40.5473 20.0103 38.9623C21.3115 36.9809 21.9904 34.6599 21.9338 32.339C22.0469 29.3387 22.0469 24.5835 22.0469 21.9228C22.0469 19.432 22.1035 12.186 21.9904 7.82707C21.9338 6.63827 18.992 5.50608 17.5777 6.12879ZM136.663 27.1309C136.607 28.999 136.211 30.8671 135.362 32.5654C134.117 35.0562 131.572 35.8487 130.44 32.2257C129.874 30.301 129.818 27.0177 130.27 24.3004C130.723 21.5266 131.911 19.432 133.948 19.6018C135.984 19.8283 136.889 22.3757 136.663 27.1309ZM103.116 41.6229C103.059 45.4723 102.493 48.8689 101.192 49.8879C99.3251 51.3031 96.8359 50.2275 97.3451 47.3971C97.7977 44.9062 99.9474 42.3588 103.172 39.1887L103.116 41.6229ZM102.606 27.0743C102.55 28.9424 102.097 30.8105 101.305 32.5654C100.061 35.0562 97.4583 35.8487 96.3834 32.2257C95.6479 29.7915 95.8176 26.6214 96.2136 24.5835C96.6662 21.9794 97.8543 19.6018 99.8909 19.6018C101.871 19.6584 102.889 21.8096 102.606 27.0743ZM83.1454 27.0743C83.0888 28.999 82.6928 30.8671 81.9008 32.5654C80.5996 35.0562 78.1104 35.7921 76.979 32.2257C76.1869 29.6783 76.4698 26.1119 76.8092 24.2438C77.3184 21.4133 78.563 19.432 80.4865 19.6018C82.4665 19.8283 83.4282 22.3757 83.1454 27.0743ZM172.247 29.6783C171.795 29.6783 171.512 30.1878 171.342 31.0369C170.72 33.9806 170.041 34.6599 169.192 34.6599C168.231 34.6599 167.382 33.1881 167.156 30.301C166.986 27.98 166.986 23.7909 167.269 19.6018C167.325 18.7527 167.043 17.9035 164.78 17.0544C163.818 16.7148 162.347 16.1487 161.612 17.9035C160.197 21.2435 159.179 24.6967 158.613 28.2631C158.613 28.3763 158.5 28.3763 158.444 28.1499C158.33 26.9044 158.048 24.5835 158.048 19.7717C158.048 18.8093 157.821 18.0168 156.803 17.3941C156.124 16.9412 154.087 16.2053 153.295 17.111C152.673 17.8469 151.938 19.8283 151.146 22.1493L150.071 25.3194V18.2432C150.071 17.5073 149.562 17.2808 149.392 17.2242C148.543 16.9412 147.695 16.7714 146.79 16.7148C146.111 16.7148 145.941 17.111 145.941 17.6771C145.941 17.7337 145.828 24.4136 145.828 29.1122V29.7349C145.432 31.8861 144.187 34.7732 142.773 34.7732C141.415 34.7732 140.736 33.5278 140.736 27.98C140.736 24.7533 140.849 23.3381 140.906 20.9605C140.963 19.6018 141.019 18.5829 141.019 18.3564C141.019 17.6205 139.775 17.2808 139.152 17.111C138.587 16.9978 138.077 16.9412 137.681 16.9412C137.116 16.9978 136.72 17.3375 136.72 17.8469V18.6395C136.097 17.6771 135.136 16.8846 134.061 16.4883C131.968 15.8656 129.818 16.4317 128.177 18.6961C126.763 20.734 125.914 23.1116 125.745 25.5458C125.518 27.697 125.575 29.9047 125.971 31.7729C125.518 33.8674 124.557 34.7165 123.595 34.7165C122.18 34.7165 121.106 32.339 121.219 28.3197C121.332 25.659 121.841 23.7909 122.407 21.0737C122.633 19.8849 122.463 19.3188 121.954 18.7527C121.502 18.2432 120.483 17.9602 119.069 18.2998C118.051 18.5263 116.58 18.8093 115.279 18.9791C115.279 18.9791 115.335 18.6961 115.448 18.13C115.788 15.1863 112.563 15.4127 111.545 16.3751C110.923 16.9412 110.527 17.6205 110.357 18.8093C110.131 20.6774 111.658 21.5832 111.658 21.5832C110.64 25.376 108.999 28.8858 106.736 32.0559V31.0369C106.736 26.1685 106.793 22.3191 106.793 20.9605C106.849 19.6018 106.906 18.5829 106.906 18.3564C106.906 17.8469 106.566 17.6205 105.944 17.3941C105.378 17.1676 104.7 16.9978 104.021 16.9412C103.172 16.8846 102.606 17.3375 102.606 17.9035V18.6395C101.984 17.6205 101.022 16.8846 99.9474 16.4883C97.8543 15.8656 95.7045 16.4317 94.0639 18.6961C92.7062 20.734 91.8576 23.1116 91.6313 25.5458C91.405 27.8102 91.4615 29.7349 91.7444 31.4332C91.405 33.0749 90.4432 34.7732 89.3684 34.7732C88.0106 34.7732 87.2186 33.5844 87.2186 27.98C87.2186 24.7533 87.3317 23.3381 87.3883 20.9605C87.4449 19.6018 87.5015 18.5829 87.5015 18.3564C87.5015 17.6205 86.2569 17.2808 85.6346 17.111C85.0123 16.9412 84.5031 16.9412 84.1071 16.9412C83.598 16.9978 83.2019 17.4507 83.2019 17.7903V18.5829C82.5796 17.5639 81.6179 16.828 80.543 16.4317C78.4498 15.809 76.3001 16.3751 74.6595 18.6395C73.5846 20.1113 72.6794 21.8096 72.2269 25.4326C72.1137 26.395 72.0571 27.4139 72.0571 28.3763C71.6045 30.9803 69.7377 34.0372 68.1536 34.0372C67.2485 34.0372 66.3433 32.2823 66.3433 28.5461C66.3433 23.5645 66.6827 16.4317 66.6827 15.7524L69.0588 15.6958C70.0205 15.6958 70.9257 15.6958 72.2269 15.6392C72.9057 15.5826 73.528 13.2616 72.8491 12.9785C72.5663 12.8653 70.36 12.7521 69.5114 12.6955C68.7759 12.6955 66.7959 12.5257 66.7959 12.5257C66.7959 12.5257 66.9656 7.77046 67.0222 7.31759C67.0787 6.86471 66.513 6.69488 66.1736 6.52505C65.4381 6.24201 64.7027 6.01557 63.9672 5.90235C62.8924 5.67591 62.3832 5.90235 62.2701 6.8081C62.1003 8.22334 62.0438 12.3558 62.0438 12.3558C61.2518 12.3558 58.4797 12.186 57.6877 12.186C56.9522 12.186 56.1037 15.4127 57.1785 15.4693L61.8175 15.5826L61.7609 25.2062V25.8855C61.0255 29.8481 58.3666 31.9993 58.3666 31.9993C58.9323 29.3953 57.7443 27.4139 55.6511 25.7723C54.8591 25.1496 53.3316 24.0174 51.5778 22.7154C51.5778 22.7154 52.5961 21.753 53.4447 19.7717C54.067 18.3564 54.1236 16.7714 52.5396 16.4317C49.9938 15.809 47.9006 17.6771 47.2783 19.7151C46.7692 21.0171 47.052 22.5455 48.0138 23.5645L48.2401 23.8475C47.6743 24.9231 46.8823 26.4516 46.2034 27.5838C44.3365 30.7539 42.9788 33.3013 41.9039 33.3013C41.0553 33.3013 41.0553 30.7539 41.0553 28.3197C41.0553 26.2251 41.2251 23.1116 41.3382 19.8849C41.3948 18.8093 40.829 18.1866 39.9239 17.6771C39.1884 17.1676 38.3964 16.828 37.5478 16.6581C36.5295 16.6581 33.6443 16.828 30.8723 24.7533C30.5328 25.7723 29.854 27.5838 29.854 27.5838L29.9105 18.0734C29.9105 17.8469 29.7974 17.6205 29.5145 17.5073C28.6659 17.0544 27.7042 16.7714 26.7425 16.7148C26.2333 16.7148 25.9504 16.9412 25.9504 17.4507L25.8373 32.3956C25.8373 33.5278 25.8939 34.8298 26.007 35.4525C26.1202 36.0186 26.2899 36.4714 26.5162 36.7545C26.7425 37.0375 26.9687 37.264 27.4213 37.3206C27.8173 37.4338 30.0237 37.6602 30.1368 36.8677C30.3065 35.8487 30.3065 34.7732 31.438 30.7539C33.1917 24.5268 35.5112 21.4133 36.6427 20.3378C36.8124 20.1113 37.0387 20.1113 37.0387 20.451L36.6992 28.1499C36.4164 35.962 37.8307 37.3772 39.8673 37.3772C41.3948 37.3772 43.6011 35.8487 45.9771 31.9427L49.8807 25.4326L52.2001 27.5271C54.067 29.282 54.6893 30.9237 54.2368 32.5088C53.9539 33.6976 52.7659 34.9996 50.6727 33.7542C50.0504 33.4145 49.8241 33.1315 49.2018 32.7352C48.8624 32.5088 48.3532 32.4522 48.0703 32.6786C47.2783 33.2447 46.8257 34.0372 46.5994 34.943C46.3732 35.8487 47.2783 36.3016 48.1835 36.6979C48.9755 37.0375 50.7293 37.3772 51.8041 37.4338C56.1037 37.6036 59.498 35.3959 61.8741 29.6783C62.3266 34.6033 64.137 37.3772 67.2485 37.3772C69.3416 37.3772 71.4914 34.6599 72.3966 31.9993C72.6794 33.0749 73.0754 34.0372 73.5846 34.8298C76.0172 38.6792 80.7127 37.8301 83.0888 34.5467C83.8242 33.5278 83.9374 33.1881 83.9374 33.1881C84.1071 35.4525 85.9174 37.264 88.1803 37.3772C89.7644 37.3772 91.405 36.6413 92.593 34.0372C92.7061 34.3203 92.8759 34.6033 93.0456 34.8298C95.4782 38.6792 100.174 37.8301 102.55 34.5467L102.833 34.1505L102.889 36.1884L100.739 38.1697C97.0622 41.5097 94.2902 44.0571 94.1205 47.0008C93.8376 50.7936 96.8925 52.1523 99.212 52.3787C101.588 52.4919 103.794 51.3031 105.096 49.3218C106.227 47.6801 106.962 44.0571 106.906 40.4907L106.793 35.3393C110.244 31.32 112.959 26.678 114.656 21.6398C114.656 21.6398 116.014 21.6398 117.428 21.5832C117.881 21.5266 118.051 21.6398 117.938 21.9794C117.824 22.3757 116.127 28.999 117.711 33.4145C118.786 36.4148 121.219 37.3772 122.633 37.3772C124.274 37.3772 125.914 36.1318 126.763 34.2071L127.102 34.8298C129.535 38.6792 134.23 37.8301 136.607 34.5467C137.116 33.8108 137.455 33.1881 137.455 33.1881C137.964 36.3582 140.453 37.3772 141.868 37.3772C143.339 37.3772 144.753 36.7545 145.884 34.0938C145.941 35.2826 145.998 36.245 146.111 36.5847C146.167 36.7545 146.62 37.0375 146.903 37.0941C148.26 37.6036 149.618 37.3772 150.127 37.264C150.467 37.2074 150.75 36.9243 150.806 36.1884C150.919 34.2637 150.863 31.0369 151.429 28.6027C152.39 24.5269 153.295 22.9984 153.748 22.2059C153.974 21.753 154.257 21.6964 154.257 22.1493C154.257 23.055 154.314 25.8289 154.71 29.4519C154.993 32.1691 155.389 33.7542 155.671 34.2637C156.52 35.7355 157.538 35.7921 158.33 35.7921C158.84 35.7921 159.971 35.6223 159.858 34.7165C159.801 34.2637 159.914 31.4898 160.876 27.5271C161.498 24.9231 162.517 22.6021 162.913 21.6964C163.083 21.4133 163.139 21.6398 163.139 21.6964C163.026 23.4513 162.856 29.3387 163.592 32.5088C164.553 36.8111 167.439 37.3206 168.457 37.3206C170.607 37.3206 172.304 35.6789 172.926 31.4332C173.096 30.4708 172.87 29.6783 172.247 29.6783Z"
        fill="white" />
</svg>
